X:95
T:Golden Dawn Waltz
C:Andy De Jarlis
M:3/4
L:1/8
Z:abc by Bruce Osborne - bosborne@kos.net
K:G
Bc ^c|d6|^c4 -^ce|d3 B GE|D2 B,3 C|!
D6|E4 G2|F6 -|F2 A2 B2|!
c6|B4 -Bd|c3 A FE|D6|!
D6|C4 -CD|B,6 -|B,2 B2 c2|!
d6|^c4 -^ce|d3 B GE|D2 B,3 C|!
D6|G4 -G=F|E6 -|E2 E2 F2|!
G6|A4 G2|B6|D6|!
E6|F4 ED|G6|G3:|!
|:d Bd|g2 d2 Bd|g2 d2 Bd|c2 a3 a|a4 ce|!
a2 a2 ce|f2 f2 ed|B2 G3 G|G3 A Bd|!
g2 d2 Bd|g2 d2 Bd|c2 a3 a|a4 g2|!
f3 g fe|d2 c2 F2|G6|G3:|!
